X:1
T:A minor American Composer, 1788
T:Isaac Watts, 1709 (Hymn 9, Book 1)   86. 86. (C. M.)
T:St. Vincent's No copyright. Transcribed from Sacred Harmony, 1788.
%%score [ 1 2 3 4 ]
L:1/8
M:3/4
K:C
V:1 treble nm="Treble" snm="Tr."
V:2 treble nm="Counter" snm="C."
V:3 treble-8 nm="Tenor" snm="T."
V:4 bass nm="Bass" snm="B."
V:1
 A2 | (A>B c2) B2 | (e2 d2) B2 | (c>B A2) ^G2 | A4 ^G2 | (A>B c2) B2 | (e>d c2) GA | B4 B2 | %8
 (c>d e2) c2 | (B>A G2) B2 | (A>B c2) d2 | B4 e2 | (e>d c2) B2 | (c>B A2) ^G2 | A6 |] %15
V:2
 E2 | E4 E2 | (G2 F2) E2 | (E>D C2) E2 | E4 E2 | (E>D C2) E2 | (C>D E2) F2 | E4 E2 | E4 G2 | %9
w: 1.~In|vain we|la- * vish|out * * our|lives, To|ga- * * ther|emp- * * ty|wind; The|choi- cest|
w: 2.~Come,~|and the|Lord * shall|feed * * our|souls With|more * * sub-|stan- * * tial|meat; With|such as|
 (G>F E2) F2 | E4 F2 | E4 E2 | E4 DB, | (C>D E2) E2 | E6 |] %15
w: bles- * * sings|earth can|yield Will|starve a *|hun- * * gry|mind.|
w: saints * * in|glo- ry|love, With|such as *|an- * * gels|eat.|
V:3
 A2 | (e>d c2) B2 | (c>B A2) ^G2 | (A>B c2) B2 | A4 B2 | A4 E2 | (A>B c2) d2 | e4 e2 | %8
 (e>d c2) e2 | (d>c B2) d2 | (c>B A2) dc | B4 E2 | (A>B c2) Bd | (e>d c2) B2 | A6 |] %15
V:4
 A,2 | A,4 E,2 | (C,2 D,2) E,2 | A,4 E,2 | A,,4 E,2 | A,4 B,2 | (C>B, A,2) G,F, | E,4 E,2 | %8
 A,4 C2 | (B,>A, E,2) D,2 | A,4 D,2 | E,4 E,2 | A,,4 E,D, | A,4 E,2 | A,,6 |] %15

